public/avatar/shoe/143.svg

<svg xmlns:xlink="http://www.w3.org/1999/xlink" height="38.3" width="36.05" xmlns="http://www.w3.org/2000/svg"><use height="18.15" transform="translate(9.75 10.45)" width="22.7" xlink:href="#a"/><defs><g id="a"><path d="M1.2-2.2q2.05.25 3.55 1.1.8.4 2.4 4.15Q8.85 6.8 8.6 8.2l-.05.25q-1.45 2.3-8.9 4.3-8.35 2.15-12.95-.4l-.3-.45q-.55-2.5-.45-3.9l.1-.25 4.4-4.35 3.6-3.45q.1 0 .1-.05Q-2.8-2.75 1.2-2.2" fill="#4f0000" fill-rule="evenodd" transform="translate(14.05 4.4)"/><path d="M6.2 3.45q1.45 3.25 1.25 4.4-1.3 1.95-8 3.7-7.55 1.9-11.9-.2-.5-1.8-.4-3.1Q-5.85 1.9-5.1.8q4.5-3.85 9.25-.85.6.4 2.05 3.5" fill="#f9d478" fill-rule="evenodd" transform="translate(14.05 4.4)"/><path d="M.05-1.25q2.4.1 4.1 1.2.6.4 2.05 3.5 1.45 3.25 1.25 4.4-1.3 1.95-8 3.7-7.55 1.9-11.9-.2-.5-1.8-.4-3.1 5.35 3.05 9.9-.5 4.4-3.45 3-9" fill="#d8a364" fill-rule="evenodd" transform="translate(14.05 4.4)"/><path d="m-10.05 2.8 2-1.75q.75-.65 2.7-.3 1.75.3 2.4.9.55.4.15.95l-3.6 4.35-.5.15-.4-.15q-.3-.4-2-.8l-2.05-.3q-.45.25-.65-.2-.3-.3-.1-.65l2.05-2.2" fill="#4f0000" fill-rule="evenodd" transform="translate(14.05 4.4)"/><path d="M-10.45 4.85q.75-1.5 3.4-3.15.6-.55 2-.3 1.4.25 1.15.6L-7 5.8q-1.8-1.1-3.45-.95" fill="#d80000" fill-rule="evenodd" transform="translate(14.05 4.4)"/><path d="m-7.35 3.25-1.35 1.9-1.75-.3.1-.1h-.1l.3-.4 2.5-2.3.5-.5 1.5.1-1.7 1.6" fill="#ff6e6e" fill-rule="evenodd" transform="translate(14.05 4.4)"/><path d="M1.75-4.3q3.3.45 3.9 1.45l.05.25L6.8-1q.7.95.65 1.35-.05.5-1.3 1.25-1.3.7-1.9.65-.45-.05-1-.5l-.25.5-.45.3-4.45.25-.35-.3-.15-.5-.4.65q-.25.4-.6.25l-3.55-.75-.25-.55-.3.1q-.9.25-1.55-.9-.3-.45.2-.85L-6.7-1.7l.05-.05q2.7-3.1 8.4-2.55" fill="#4f0000" fill-rule="evenodd" transform="translate(14.05 4.4)"/><path d="M4.55-2.25q.1.85 1.6 2.4-.25 1-1.75.9L2.85.45l-.55.9-3.55.35-.7-1.45-1.65 1.4-2.2-.4-.25-.8-1 .3q-.4.1-.6-.35l2.25-1.8q2.25-2.4 6-2.25 3.25.2 3.95 1.4" fill="#ffe7b3" fill-rule="evenodd" transform="translate(14.05 4.4)"/><path d="m-3.45 1.6-.15.05-2.2-.4-.15-.2Q-4.2.8-3.65-.5q.35 1 .2 2.1m1.8-2.75 1.1.95Q.35.85.5 1.65l-1.75.05-.7-1.35q.3-.8.3-1.5m-2.4-1.35v.5l-.45-.2.45-.3" fill="#b59668" fill-rule="evenodd" transform="translate(14.05 4.4)"/><path d="M1.35-3.5q2.6.3 3.2 1.25.1.85 1.6 2.4-.25 1-1.75.9Q3.75 1 2.85.45q-2.1-2-3.15-2h-1l-1.5-.15-1.25-.3v-.5q2.25-1.45 5.4-1" fill="#b59668" fill-rule="evenodd" transform="translate(14.05 4.4)"/><path d="M-13.15 10.05q3.55 2.3 11.9.4 7.8-1.65 9.1-3.8" fill="none" stroke="#4f0000" stroke-linecap="round" stroke-linejoin="round" transform="translate(14.05 4.4)"/><path d="M-12.3 10.35q0-1.75.75-1.55l.05 1.5q0 .9.35 1.6.2.35-.25.6-.4.25-.55-.15-.35-.75-.35-2m3.45 2.45V9.4q.15-.05.5.7.4.8.4 1.25v1.45q-.15.5-.5.5-.5-.15-.4-.5m3.45-1.55-.25-2q.15-.15.6.55.5.8.55 1.35v1.5q0 .3-.4.3l-.5-.55v-1.15m3.25-2.45q.2-.15.65.65l.5 1.4.05 1.05-.4.3-.5-.3-.05-1q-.5-2-.25-2.1M.8 8.05l.55.75q.45.9.5 1.5l-.1 1.2q0 .25-.4.25-.45 0-.45-.6l.05-.8-.15-2.3m2.35-1L4.2 8.5l.3 1.8q0 .4-.45.4t-.45-.45L3.35 8.8q-.4-1.45-.2-1.75m2.15-.8.65.5q.6.6.65 1.1.45 1.65 0 1.95l-.35-.1-.3-.45-.2-1.2q-.65-1.6-.45-1.8" fill="#4f0000" fill-rule="evenodd" transform="translate(14.05 4.4)"/></g></defs></svg>

<?xml version="1.0" encoding="UTF-8" standalone="no"?>
<svg xmlns:xlink="http://www.w3.org/1999/xlink" height="38.3px" width="36.05px" xmlns="http://www.w3.org/2000/svg">
  <g transform="matrix(1.0, 0.0, 0.0, 1.0, 23.8, 14.85)">
    <use height="18.15" transform="matrix(1.0, 0.0, 0.0, 1.0, -14.05, -4.4)" width="22.7" xlink:href="#shape0"/>
  </g>
  <defs>
    <g id="shape0" transform="matrix(1.0, 0.0, 0.0, 1.0, 14.05, 4.4)">
      <path d="M1.2 -2.2 Q3.25 -1.95 4.75 -1.1 5.55 -0.7 7.15 3.05 8.85 6.8 8.6 8.2 L8.55 8.45 Q7.1 10.75 -0.35 12.75 -8.7 14.9 -13.3 12.35 L-13.6 11.9 Q-14.15 9.4 -14.05 8.0 L-13.95 7.75 -9.55 3.4 -5.95 -0.05 Q-5.85 -0.05 -5.85 -0.1 -2.8 -2.75 1.2 -2.2" fill="#4f0000" fill-rule="evenodd" stroke="none"/>
      <path d="M6.2 3.45 Q7.65 6.7 7.45 7.85 6.15 9.8 -0.55 11.55 -8.1 13.45 -12.45 11.35 -12.95 9.55 -12.85 8.25 -5.85 1.9 -5.1 0.8 -0.6 -3.05 4.15 -0.05 4.75 0.35 6.2 3.45" fill="#f9d478" fill-rule="evenodd" stroke="none"/>
      <path d="M0.05 -1.25 Q2.45 -1.15 4.15 -0.05 4.75 0.35 6.2 3.45 7.65 6.7 7.45 7.85 6.15 9.8 -0.55 11.55 -8.1 13.45 -12.45 11.35 -12.95 9.55 -12.85 8.25 -7.5 11.3 -2.95 7.75 1.45 4.3 0.05 -1.25" fill="#d8a364" fill-rule="evenodd" stroke="none"/>
      <path d="M-10.05 2.8 L-8.05 1.05 Q-7.3 0.4 -5.35 0.75 -3.6 1.05 -2.95 1.65 -2.4 2.05 -2.8 2.6 L-6.4 6.95 -6.9 7.1 -7.3 6.95 Q-7.6 6.55 -9.3 6.15 L-11.35 5.85 Q-11.8 6.1 -12.0 5.65 -12.3 5.35 -12.1 5.0 L-10.05 2.8" fill="#4f0000" fill-rule="evenodd" stroke="none"/>
      <path d="M-10.45 4.85 Q-9.7 3.35 -7.05 1.7 -6.45 1.15 -5.05 1.4 -3.65 1.65 -3.9 2.0 L-7.0 5.8 Q-8.8 4.7 -10.45 4.85" fill="#d80000" fill-rule="evenodd" stroke="none"/>
      <path d="M-7.35 3.25 L-8.7 5.15 -10.45 4.85 -10.35 4.75 -10.45 4.75 -10.15 4.35 -7.65 2.05 -7.15 1.55 -5.65 1.65 -7.35 3.25" fill="#ff6e6e" fill-rule="evenodd" stroke="none"/>
      <path d="M1.75 -4.3 Q5.05 -3.85 5.65 -2.85 L5.7 -2.6 6.8 -1.0 Q7.5 -0.05 7.45 0.35 7.4 0.85 6.15 1.6 4.85 2.3 4.25 2.25 3.8 2.2 3.25 1.75 L3.0 2.25 2.55 2.55 -1.9 2.8 -2.25 2.5 -2.4 2.0 -2.8 2.65 Q-3.05 3.05 -3.4 2.9 L-6.95 2.15 -7.2 1.6 -7.5 1.7 Q-8.4 1.95 -9.05 0.8 -9.35 0.35 -8.85 -0.05 L-6.7 -1.7 -6.65 -1.75 Q-3.95 -4.85 1.75 -4.3" fill="#4f0000" fill-rule="evenodd" stroke="none"/>
      <path d="M4.55 -2.25 Q4.65 -1.4 6.15 0.15 5.9 1.15 4.4 1.05 L2.85 0.45 2.3 1.35 -1.25 1.7 -1.95 0.25 -3.6 1.65 -5.8 1.25 -6.05 0.45 -7.05 0.75 Q-7.45 0.85 -7.65 0.4 L-5.4 -1.4 Q-3.15 -3.8 0.6 -3.65 3.85 -3.45 4.55 -2.25" fill="#ffe7b3" fill-rule="evenodd" stroke="none"/>
      <path d="M-3.45 1.6 L-3.6 1.65 -5.8 1.25 -5.95 1.05 Q-4.2 0.8 -3.65 -0.5 -3.3 0.5 -3.45 1.6" fill="#b59668" fill-rule="evenodd" stroke="none"/>
      <path d="M-1.65 -1.15 L-0.55 -0.2 Q0.35 0.85 0.5 1.65 L-1.25 1.7 -1.95 0.35 Q-1.65 -0.45 -1.65 -1.15" fill="#b59668" fill-rule="evenodd" stroke="none"/>
      <path d="M-4.05 -2.5 L-4.05 -2.0 -4.5 -2.2 -4.05 -2.5" fill="#b59668" fill-rule="evenodd" stroke="none"/>
      <path d="M1.35 -3.5 Q3.95 -3.2 4.55 -2.25 4.65 -1.4 6.15 0.15 5.9 1.15 4.4 1.05 3.75 1.0 2.85 0.45 0.75 -1.55 -0.3 -1.55 L-1.3 -1.55 -2.8 -1.7 -4.05 -2.0 -4.05 -2.5 Q-1.8 -3.95 1.35 -3.5" fill="#b59668" fill-rule="evenodd" stroke="none"/>
      <path d="M-13.15 10.05 Q-9.6 12.35 -1.25 10.45 6.55 8.8 7.85 6.65" fill="none" stroke="#4f0000" stroke-linecap="round" stroke-linejoin="round" stroke-width="1.0"/>
      <path d="M-12.3 10.35 Q-12.3 8.6 -11.55 8.8 L-11.5 10.3 Q-11.5 11.2 -11.15 11.9 -10.95 12.25 -11.4 12.5 -11.8 12.75 -11.95 12.35 -12.3 11.6 -12.3 10.35" fill="#4f0000" fill-rule="evenodd" stroke="none"/>
      <path d="M-8.85 12.8 L-8.85 9.4 Q-8.7 9.35 -8.35 10.1 -7.95 10.9 -7.95 11.35 L-7.95 12.8 Q-8.1 13.3 -8.45 13.3 -8.95 13.15 -8.85 12.8" fill="#4f0000" fill-rule="evenodd" stroke="none"/>
      <path d="M-5.4 11.25 L-5.65 9.25 Q-5.5 9.1 -5.05 9.8 -4.55 10.6 -4.5 11.15 L-4.5 12.65 Q-4.5 12.95 -4.9 12.95 L-5.4 12.4 -5.4 11.25" fill="#4f0000" fill-rule="evenodd" stroke="none"/>
      <path d="M-2.15 8.8 Q-1.95 8.65 -1.5 9.45 L-1.0 10.85 -0.95 11.9 -1.35 12.2 -1.85 11.9 -1.9 10.9 Q-2.4 8.9 -2.15 8.8" fill="#4f0000" fill-rule="evenodd" stroke="none"/>
      <path d="M0.8 8.05 L1.35 8.8 Q1.8 9.7 1.85 10.3 L1.75 11.5 Q1.75 11.75 1.35 11.75 0.9 11.75 0.9 11.15 L0.95 10.35 0.8 8.05" fill="#4f0000" fill-rule="evenodd" stroke="none"/>
      <path d="M3.15 7.05 L4.2 8.5 4.5 10.3 Q4.5 10.7 4.05 10.7 3.6 10.7 3.6 10.25 L3.35 8.8 Q2.95 7.35 3.15 7.05" fill="#4f0000" fill-rule="evenodd" stroke="none"/>
      <path d="M5.3 6.25 L5.95 6.75 Q6.55 7.35 6.6 7.85 7.05 9.5 6.6 9.8 L6.25 9.7 5.95 9.25 5.75 8.05 Q5.1 6.45 5.3 6.25" fill="#4f0000" fill-rule="evenodd" stroke="none"/>
    </g>
  </defs>
</svg>
